flaticon/grooming/eyelashes-curler.svg

<svg xmlns="http://www.w3.org/2000/svg" width="32" height="32" viewBox="0 0 24 24">
    <path d="M 12 0 C 8.921875 0 5.601562 0.878906 5.601562 2.800781 L 5.601562 8 C 5.601562 8.179688 5.691406 8.316406 5.835938 8.371094 L 11.039062 11.839844 C 10.414062 12.175781 10 12.832031 10 13.601562 C 10 14.023438 10.125 14.414062 10.34375 14.734375 L 8.1875 17.609375 C 8.125 17.601562 8.0625 17.601562 8 17.601562 C 6.679688 17.601562 5.601562 18.679688 5.601562 20 L 5.601562 21.601562 C 5.601562 22.921875 6.679688 24 8 24 C 9.320312 24 10.398438 22.921875 10.398438 21.601562 L 10.398438 20 C 10.398438 19.046875 9.835938 18.214844 9.023438 17.832031 L 10.925781 15.292969 C 11.234375 15.488281 11.601562 15.601562 12 15.601562 C 12.394531 15.601562 12.761719 15.488281 13.066406 15.296875 L 14.96875 17.835938 C 14.160156 18.222656 13.601562 19.046875 13.601562 20 L 13.601562 21.601562 C 13.601562 22.921875 14.679688 24 16 24 C 17.320312 24 18.398438 22.921875 18.398438 21.601562 L 18.398438 20 C 18.398438 18.679688 17.320312 17.601562 16 17.601562 C 15.933594 17.601562 15.867188 17.605469 15.800781 17.609375 L 13.652344 14.742188 C 13.871094 14.421875 14 14.027344 14 13.601562 C 14 12.835938 13.589844 12.183594 12.972656 11.84375 L 18.199219 8.359375 L 18.199219 8.355469 C 18.324219 8.292969 18.398438 8.164062 18.398438 8 L 18.398438 2.800781 C 18.398438 0.878906 15.078125 0 12 0 Z M 9.601562 20 L 9.601562 21.601562 C 9.601562 22.480469 8.878906 23.199219 8 23.199219 C 7.121094 23.199219 6.398438 22.480469 6.398438 21.601562 L 6.398438 20 C 6.398438 19.121094 7.121094 18.398438 8 18.398438 C 8.878906 18.398438 9.601562 19.121094 9.601562 20 Z M 17.601562 20 L 17.601562 21.601562 C 17.601562 22.480469 16.878906 23.199219 16 23.199219 C 15.121094 23.199219 14.398438 22.480469 14.398438 21.601562 L 14.398438 20 C 14.398438 19.121094 15.121094 18.398438 16 18.398438 C 16.878906 18.398438 17.601562 19.121094 17.601562 20 Z M 12 0.800781 C 15.078125 0.800781 17.601562 1.679688 17.601562 2.800781 L 17.601562 4.550781 C 16.503906 3.6875 14.4375 3.257812 12.410156 3.207031 C 12.40625 3.207031 12.402344 3.207031 12.398438 3.203125 C 12.339844 3.203125 12.285156 3.203125 12.226562 3.203125 C 12.210938 3.203125 12.199219 3.203125 12.183594 3.203125 C 12.121094 3.199219 12.0625 3.199219 12 3.199219 C 11.9375 3.199219 11.878906 3.199219 11.816406 3.203125 C 11.800781 3.203125 11.789062 3.203125 11.773438 3.203125 C 11.714844 3.203125 11.660156 3.203125 11.601562 3.203125 C 11.597656 3.207031 11.59375 3.207031 11.589844 3.207031 C 9.5625 3.257812 7.496094 3.6875 6.398438 4.550781 L 6.398438 2.800781 C 6.398438 1.71875 8.921875 0.800781 12 0.800781 Z M 17.601562 6 L 17.601562 6.558594 C 16.441406 5.640625 14.160156 5.199219 12 5.199219 C 9.839844 5.199219 7.558594 5.640625 6.398438 6.558594 L 6.398438 6 C 6.398438 4.878906 8.921875 4 12 4 C 15.078125 4 17.601562 4.878906 17.601562 6 Z M 12 6 C 14.898438 6 17.300781 6.777344 17.574219 7.804688 L 12 11.519531 L 6.429688 7.792969 C 6.71875 6.773438 9.113281 6 12 6 Z M 12 14.800781 C 11.320312 14.800781 10.800781 14.28125 10.800781 13.601562 C 10.800781 12.921875 11.320312 12.398438 12 12.398438 C 12.679688 12.398438 13.199219 12.921875 13.199219 13.601562 C 13.199219 14.28125 12.679688 14.800781 12 14.800781 Z M 12 14.800781"/>
</svg>

<svg xmlns="http://www.w3.org/2000/svg" width="32" height="32" viewBox="0 0 24 24">
    <path d="M12 0C8.922 0 5.602.879 5.602 2.8V8c0 .18.09.316.234.371l5.203 3.469A1.98 1.98 0 0 0 10 13.602a2 2 0 0 0 .344 1.132L8.188 17.61c-.063-.007-.126-.007-.188-.007A2.404 2.404 0 0 0 5.602 20v1.602A2.404 2.404 0 0 0 8 24a2.404 2.404 0 0 0 2.398-2.398V20c0-.953-.562-1.785-1.375-2.168l1.903-2.539c.308.195.676.309 1.074.309.395 0 .762-.114 1.066-.305l1.903 2.539A2.4 2.4 0 0 0 13.602 20v1.602A2.404 2.404 0 0 0 16 24a2.404 2.404 0 0 0 2.398-2.398V20A2.404 2.404 0 0 0 16 17.602c-.066 0-.133.003-.2.007l-2.148-2.867c.22-.32.348-.715.348-1.14 0-.766-.41-1.418-1.027-1.758l5.226-3.485v-.004c.125-.062.2-.19.2-.355V2.8C18.398.88 15.078 0 12 0zM9.602 20v1.602c0 .878-.723 1.597-1.602 1.597a1.605 1.605 0 0 1-1.602-1.597V20c0-.879.723-1.602 1.602-1.602.879 0 1.602.723 1.602 1.602zm8 0v1.602c0 .878-.723 1.597-1.602 1.597a1.605 1.605 0 0 1-1.602-1.597V20c0-.879.723-1.602 1.602-1.602.879 0 1.602.723 1.602 1.602zM12 .8c3.078 0 5.602.88 5.602 2v1.75c-1.098-.862-3.165-1.292-5.192-1.343-.004 0-.008 0-.012-.004H12.184C12.12 3.2 12.063 3.2 12 3.2s-.121 0-.184.004H11.602c-.004.004-.008.004-.012.004-2.027.05-4.094.48-5.192 1.344V2.8c0-1.082 2.524-2 5.602-2zM17.602 6v.559c-1.16-.918-3.442-1.36-5.602-1.36s-4.441.442-5.602 1.36V6c0-1.121 2.524-2 5.602-2 3.078 0 5.602.879 5.602 2zM12 6c2.898 0 5.3.777 5.574 1.805L12 11.52 6.43 7.793C6.719 6.773 9.113 6 12 6zm0 8.8c-.68 0-1.2-.519-1.2-1.198 0-.68.52-1.204 1.2-1.204.68 0 1.2.524 1.2 1.204 0 .68-.52 1.199-1.2 1.199zm0 0"/>
</svg>
